shader fbm (
	color Cin=1,
output	color Cout=1
)
{
    float i;
    float mag=0.5;
    float baseF=2;
    float freq=1;

    for(i=0;i<6;i+=1)
        {
	mag+=((float)noise("perlin",P*baseF*freq))/freq;
        freq*=2.1;
	}
    Cout=mag;
}

