surface spherical (
        color Cin = 1,
output  color Cout=0
)
{
    point PP=transform("object",P);
    vector d=normalize(PP);
    float repeatCount=10;
    float s=atan2(d[0],d[1])/(2*M_PI)*repeatCount;
    float t=acos(d[2])/M_PI*repeatCount;
    Cout=(color) noise("cell",s,t);;
}

