surface disk (
	color Cin = 1,
output	color Cout=0
)
{
    color red=color("rgb",1,0,0);
    color green=color("rgb",0,1,0);
    color blue=color("rgb",0,0,1);
    float fuzz=0.025;
    float dist;
    float inDisk;

    Cout=Cin;

    dist=sqrt((u-0.5)*(u-0.5)+(v-0.5)*(v-0.5));
    inDisk=1-smoothstep(0.3-fuzz,0.3+fuzz,dist);
    Cout=mix(Cout,blue,inDisk);
}

