surface layer (
	color Cin = 1,
output	color Cout=0
)
{
    color red=color  ("rgb",1,0,0);
    color green=color  ("rgb",0,1,0);
    color blue=color  ("rgb",0,0,1);
    float fuzz=0.025;
    float inTop;
    float inLine;
    float dist;

    Cout=green;
    inTop=smoothstep(0.5-fuzz,0.5+fuzz,v);
    Cout=mix(Cout,red,inTop);

    dist=abs(u-0.5);
    inLine=1-smoothstep(0.1-fuzz,0.1+fuzz,dist);
    Cout=mix(Cout,blue,inLine);
}

