surface urchinPattern (
	color Cin = 1,
output color Cout=0, output float a = 1, output float b = 0)
{

		color green = color(0,0.4,0);
		a = (abs(0.1*sin(10*u*M_PI)))+0.2*noise(u*10)+0.03*noise("usimplex",u*40, v*7);
		Cout = Cin*a;
		if(v < .06){
			Cout = color(0.1,0.05,0.05);
			Cout = Cin * v*2;
		}
		else if( v > 0.07){
	    float mag=noise(P*200);
	    b=smoothstep(0.6,1,mag)*0.4;
			Cout = mix(Cout, green, 0.2*v);
		}

}
